X: 21062
T: PAIN'S FIRST SET OF QUADRILLES #2
B: K\"ohler's Violin Repository, v.2, 1885 p.106 #2
F: http://www.archive.org/details/klersviolinrepos02rugg
Z: 2012 John Chambers <jc:trillian.mit.edu>
M: 2/4
L: 1/16
K: G
(uBc) |\
d(BcA) Ggfe | (ed)dd d2cB | Aced cBAG | FED^C D2(Bc) |
d(BcA) Ggfe | (ed)dd (dg)fe | dBcA BGAF | G2B2G2 ||
|: (ucB) |\
(BA)AA A2Bc | (ed)dd (dg)dB | (BA)AA A2Bc | (ed)dd d2ba |
(gb)(fa) (eg)(df) | (ce)(Bd) (Ac)(GB) | A2A2 {B}A^GAB | =G2B2G2 "_D.C."|]

%%sep 2 1 500

